src/amo/components/Icon/img/permissions/privacy.svg

<svg xmlns="http://www.w3.org/2000/svg" width="24" height="24" viewBox="0 0 24 24">
  <path fill="#0F1126" fill-rule="evenodd" d="M16.8,14.4 C16.6988,14.4 16.6,14.3888 16.5,14.3848 L15.0972,16.1832 C15.0076,16.2796 14.8,16.4 14.6252,16.4 C14.4,16.4 14.4,16.4 14,16 C13.6,15.6 13.6,15.6 13.2,15.2 L12.8,15.2 L10.4,17.6 L8.8,17.6 L8.8,19.1824 C8.8,19.4268 8.4,19.6 8.4,19.6 L7.6,19.6 L7.6,20.3968 C7.6,20.8 7.2,20.8 7.2,20.8 L6.4,20.8 L6.4,22.0092 C6.4,22.4 6,22.4 6,22.4 L4.8,22.4 L4.8,23.6 C4.8,24 4.4,24 4.4,24 L0.4,24 C0,24 0,23.6 0,23.6 L0,20.8 L8.8,12 C8.8328,11.9644 9.2,11.6 8.8,11.2 C8.4,10.8 8,10.4 8,10.4 C7.8004,10.2152 7.8152,9.7996 8,9.6 L9.6408,7.9592 C9.6144,7.7096 9.6,7.4564 9.6,7.2 C9.6,3.2236 12.8236,0 16.8,0 C20.7764,0 24,3.2236 24,7.2 C24,11.1764 20.7764,14.4 16.8,14.4 L16.8,14.4 Z M18.4,4 C17.5164,4 16.8,4.7164 16.8,5.6 C16.8,6.4836 17.5164,7.2 18.4,7.2 C19.2836,7.2 20,6.4836 20,5.6 C20,4.7164 19.2836,4 18.4,4 L18.4,4 Z"/>
</svg>

<svg xmlns="http://www.w3.org/2000/svg" width="24" height="24"><path fill="#0F1126" fill-rule="evenodd" d="M16.8 14.4c-.101 0-.2-.011-.3-.015l-1.403 1.798c-.09.097-.297.217-.472.217-.225 0-.225 0-.625-.4l-.8-.8h-.4l-2.4 2.4H8.8v1.582c0 .245-.4.418-.4.418h-.8v.797c0 .403-.4.403-.4.403h-.8v1.21c0 .39-.4.39-.4.39H4.8v1.2c0 .4-.4.4-.4.4h-4c-.4 0-.4-.4-.4-.4v-2.8L8.8 12c.033-.036.4-.4 0-.8l-.8-.8c-.2-.185-.185-.6 0-.8l1.64-1.64a7.2 7.2 0 1 1 7.16 6.44ZM18.4 4a1.6 1.6 0 1 0 0 3.2 1.6 1.6 0 0 0 0-3.2Z"/></svg>
